exported-svg/eye-off.svg

<svg height="24" viewBox="0 0 24 24" width="24" xmlns="http://www.w3.org/2000/svg"><path d="m17.1696893 17.8767961-3.06406-3.06406c-.8492776.6765543-1.9754809.9267784-3.0465053.6532576-1.24008909-.316697-2.20842069-1.2850286-2.52511767-2.5251177-.27352085-1.0710244-.02329677-2.1972277.65325756-3.04650532l-3.16770042-3.16770043c-1.81081654 1.45384593-3.32279379 3.24566417-4.45151731 5.27635945.01634125.0295972.03410595.0614874.05328848.0955897.14895685.2648121.32683748.5608055.53306005.8801179.59012069.9137352 1.2870734 1.8277716 2.08537391 2.6792921 2.25770253 2.4082161 4.85638262 3.8419706 7.7520577 3.8420374 1.8504336-.0302537 3.6481133-.5962183 5.177863-1.6232707zm1.1179995-.2962141c.0036593.0035487.0072736.0071626.0108414.0108414l5.0550232 5.0550232c.1952621.1952622.1952621.5118446 0 .7071068-.1952622.1952621-.5118446.1952621-.7071068 0l-4.7574268-4.7574268c-1.7240363 1.2045083-3.7719189 1.8693223-5.8890198 1.9038734-3.22115122 0-6.05997113-1.5662455-8.4897686-4.1580294-.84232449-.8984795-1.57505928-1.8594431-2.19587609-2.8207079-.21760556-.3369376-.40593586-.6503192-.5645962-.9323821-.09638066-.1713434-.1621817-.2956918-.19697271-.3652738-.0726558-.1453116-.07018116-.3168645.00663577-.4600199 1.18762604-2.21325146 2.80246935-4.16662004 4.74904415-5.7480138l-4.66201971-4.66201971c-.19526215-.19526215-.19526215-.51184463 0-.70710678s.51184463-.19526215.70710678 0l5.05415992 5.05415991c.0036425.00353293.00724035.00713031.01079209.0107921l3.8130782 3.81307825c.0011678.00115647.0023312.00231983.0034901.00349008l4.2369594 4.23695935c.0011702.0011589.0023336.0023223.00349.0034901l3.8121655 3.8121654zm-8.38694512-6.9727315c-.43107859.594807-.58364154 1.3580203-.39783434 2.0855847.22621213.8857779.91787756 1.5774433 1.80365546 1.8036555.7275644.1858072 1.4907777.0332442 2.0855847-.3978344zm12.47792132 1.2935285c-.1489568-.2648131-.3268375-.5608074-.5330601-.8801208-.5901207-.9137382-1.2870735-1.82777752-2.085374-2.6793008-2.2577026-2.4082236-4.8563825-3.84198258-7.7613881-3.84198392-.668213-.00154646-1.3343135.07458528-1.9848862.22686724-.2688747.0629365-.53786083-.1040094-.60079732-.37288411-.0629365-.26887471.1040094-.53786084.37288411-.60079733.72603911-.16994665 1.46940071-.25490895 2.21395661-.25323517 3.2211516 0 6.0599717 1.56630117 8.4897691 4.15809331.8423245.89848223 1.5750592 1.85944884 2.195876 2.82071658.2176055.3369386.4059358.6503212.5645961.9323849.0963807.1713439.1621817.2956927.1969727.3652749.0725289.1450582.0701962.3162838-.0062574.4593123-.6234264 1.1662995-1.3669161 2.2643236-2.2183784 3.2762162-.1777928.2112921-.4932084.2384486-.7045004.0606558-.2112921-.1777928-.2384486-.4932084-.0606558-.7045004.749678-.8909304 1.4110046-1.8523401 1.974785-2.8706498-.016411-.0297266-.0342602-.0617702-.0535419-.0960489z"/></svg>

<?xml version="1.0" encoding="UTF-8"?>
<svg width="24px" height="24px" viewBox="0 0 24 24" version="1.1" xmlns="http://www.w3.org/2000/svg" xmlns:xlink="http://www.w3.org/1999/xlink">
    <!-- Generator: Sketch 55.2 (78181) - https://sketchapp.com -->
    <title>eye-off</title>
    <desc>Created with Sketch.</desc>
    <g id="eye-off" stroke="none" stroke-width="1" fill="none" fill-rule="evenodd">
        <path d="M17.1696893,17.8767961 L14.1056293,14.8127361 C13.2563517,15.4892904 12.1301484,15.7395145 11.059124,15.4659937 C9.81903491,15.1492967 8.85070331,14.1809651 8.53400633,12.940876 C8.26048548,11.8698516 8.51070956,10.7436483 9.18726389,9.89437068 L6.01956347,6.72667025 C4.20874693,8.18051618 2.69676968,9.97233442 1.56804616,12.0030297 C1.58438741,12.0326269 1.60215211,12.0645171 1.62133464,12.0986194 C1.77029149,12.3634315 1.94817212,12.6594249 2.15439469,12.9787373 C2.74451538,13.8924725 3.44146809,14.8065089 4.2397686,15.6580294 C6.49747113,18.0662455 9.09615122,19.5 11.9918263,19.5000668 C13.8422599,19.4698131 15.6399396,18.9038485 17.1696893,17.8767961 Z M18.2876888,17.580582 C18.2913481,17.5841307 18.2949624,17.5877446 18.2985302,17.5914234 L23.3535534,22.6464466 C23.5488155,22.8417088 23.5488155,23.1582912 23.3535534,23.3535534 C23.1582912,23.5488155 22.8417088,23.5488155 22.6464466,23.3535534 L17.8890198,18.5961266 C16.1649835,19.8006349 14.1171009,20.4654489 12,20.5 C8.77884878,20.5 5.94002887,18.9337545 3.5102314,16.3419706 C2.66790691,15.4434911 1.93517212,14.4825275 1.31435531,13.5212627 C1.09674975,13.1843251 0.908419452,12.8709435 0.749759106,12.5888806 C0.653378445,12.4175372 0.587577414,12.2931888 0.552786404,12.2236068 C0.480130601,12.0782952 0.48260524,11.9067423 0.559422165,11.7635869 C1.74704821,9.55033544 3.36189152,7.59696686 5.30846632,6.0155731 L0.646446609,1.35355339 C0.451184464,1.15829124 0.451184464,0.841708755 0.646446609,0.646446609 C0.841708755,0.451184464 1.15829124,0.451184464 1.35355339,0.646446609 L6.40771331,5.70060652 C6.41135581,5.70413945 6.41495366,5.70773683 6.4185054,5.71139862 L10.2315836,9.52447687 C10.2327514,9.52563334 10.2339148,9.5267967 10.2350737,9.52796695 L14.4720331,13.7649263 C14.4732033,13.7660852 14.4743667,13.7672486 14.4755231,13.7684164 L18.2876886,17.5805818 Z M9.90074368,10.6078505 C9.46966509,11.2026575 9.31710214,11.9658708 9.50290934,12.6934352 C9.72912147,13.5792131 10.4207869,14.2708785 11.3065648,14.4970907 C12.0341292,14.6828979 12.7973425,14.5303349 13.3921495,14.0992563 L9.90074368,10.6078505 Z M22.378665,11.901379 C22.2297082,11.6365659 22.0518275,11.3405716 21.8456049,11.0212582 C21.2554842,10.10752 20.5585314,9.19348068 19.7602309,8.3419574 C17.5025283,5.9337338 14.9038484,4.49997482 11.9988428,4.49997348 C11.3306298,4.49842702 10.6645293,4.57455876 10.0139566,4.72684072 C9.7450819,4.78977722 9.47609577,4.62283132 9.41315928,4.35395661 C9.35022278,4.0850819 9.51716868,3.81609577 9.78604339,3.75315928 C10.5120825,3.58321263 11.2554441,3.49825033 12,3.49992411 C15.2211516,3.49992411 18.0599717,5.06622528 20.4897691,7.65801742 C21.3320936,8.55649965 22.0648283,9.51746626 22.6856451,10.478734 C22.9032506,10.8156726 23.0915809,11.1290552 23.2502412,11.4111189 C23.3466219,11.5824628 23.4124229,11.7068116 23.4472139,11.7763938 C23.5197428,11.921452 23.5174101,12.0926776 23.4409565,12.2357061 C22.8175301,13.4020056 22.0740404,14.5000297 21.2225781,15.5119223 C21.0447853,15.7232144 20.7293697,15.7503709 20.5180777,15.5725781 C20.3067856,15.3947853 20.2796291,15.0793697 20.4574219,14.8680777 C21.2070999,13.9771473 21.8684265,13.0157376 22.4322069,11.9974279 C22.4157959,11.9677013 22.3979467,11.9356577 22.378665,11.901379 Z" id="Combined-Shape" fill="#000000" fill-rule="nonzero"></path>
    </g>
</svg>
